X: 1
T: Chilly Winds
C: trad.
O: arr. Tim Brooks
R: reel
Z: 2020 John Chambers <jc:trillian.mit.edu>
S: https://www.oldtimetim.com/documents/rtcjp10.pdf
M: C
L: 1/8
K: Ddor
|:\
"Dm"D2DD F2G2 | AGF2 AGF2 | D2DD F2G2 | A3c "C"A4 |\
"Dm"D2DD F2G2 | AGF2 AGF2 | AGF2 "C"D2C2 | "Dm"D3F D4 :|
|:\
"Dm"d2c2 A2c2 | AGF2 D3A | d2c2 Ac3 | "C"A3c A4 |\
"Dm"d2c2 A2c2 | AGF2 D4 | "Am"AGF2 D2C2 | "Dm"D3F D4 :|
|:\
"Dm"d2 d4 d2 | fed2 A4 | fed2 A2f2 | "C"a6 a2 |\
"Dm"d2 d4 d2 | fed2 A4 | "Am"AGF2 D2C2 | "Dm"D3F D4 :|
